!!!OTL: Das Traenenkrueglein
!!!OTL-incipit:Meine Freude ist, wenn die Sonn' aufgeht,
!!!ARE: Europa, Mitteleuropa, Deutschland (), Thueringen, Saaldorf
!!!YOR: 5, S. 334
!!    1906 aufgezeichnet
!!!SCT: Q1122D
!!!TXL: @@DE
!!!YEM: Copyright 1995, estate of Helmut Schaffrath.
**kern	**text
*ICvox	*
*M3/4	*
*k[f#]	*
*G:	*
!LO:TX:a:t=A 143906 Thüringen	!
{8dL	Meine
8dJ	.
=1	=1
8gL	Freude
8gJ	.
4b	ist,
8ddL	wenn
8ddJ	die
=2	=2
8ccL	Sonn'
8f#J	.
4a}	aufgeht,
{8dL	wenn
8dJ	Tiroler
=3	=3
8f#L	.
8f#J	.
8aL	Madle
8aJ	.
12ddL	über
12dd	.
12ddJ	die
=4	=4
8ddL	Hügel
8gJ	.
4b}	ʒiehn.
{8dL	Wenn
8dJ	der
=5	=5
8gL	Wandrer
8gJ	.
8.bL	fragt
16bJ	'Wo
8ddL	ist
8ddJ	mein
=6	=6
8ccL	Nachtquartier?',
8f#J	.
4a}	.
{8ddL	sagt
8ddJ	Tiroler
=7	=7
8ff#L	.
8eeJ	.
8ddL	Madla
8ddJ	.
8ccL	'Schlaf
8f#J	bei
=8	=8
4g	mir!'
4r}	.
==	==
!!!AGN: ???
!! Melodievergleich zu Q0122A und B, anderes Lied.
!!!ONB: ESAC (Essen Associative Code) Database: BALLADE
!!!AMT: simple triple
!!!AIN: vox
!!!EED: Helmut Schaffrath
!!!EEV: 1.0
!!!source: Deutsche Volkslieder mit ihren Melodien Balladen. Herausgegeben vom Deutschen Volksliedarchiv. Fünfter Teil. Freiburg/Breisgau 1965.
!!!page: 334
!!!ENC: Anna Maria Matuszewska
!!!EEV: 2025/03/05
*-	*-
